Catalina-dark/actions/22/office-chart-scatter.svg

<svg viewBox="0 0 22 22" xmlns="http://www.w3.org/2000/svg">
<defs>
<style id="current-color-scheme" type="text/css">.ColorScheme-Text {
        color:#f2f2f2;
      }
      .ColorScheme-Highlight {
        color:#3daee9;
      }</style>
</defs>
<path class="ColorScheme-Text" d="m4 3v14h-1v1h1v1h1v-1h14v-1h-14v-14h-1zm13 0v1h1v-1h-1zm1 1v1h1v-1h-1zm0 1h-1v1h1v-1zm-1 0v-1h-1v1h1zm-11-1v1h1v-1h-1zm2 0v1h1v-1h-1zm-2 2v1h1v-1h-1zm2 0v1h1v-1h-1zm3 1v1h1v-1h-1zm2 0v1h1v-1h-1zm-2 2v1h1v-1h-1zm2 0v1h1v-1h-1zm-6 4v1h1v-1h-1zm1 1v1h1v-1h-1zm0 1h-1v1h1v-1zm-1 0v-1h-1v1h1z" fill="currentColor"/>
</svg>

<svg xmlns="http://www.w3.org/2000/svg" viewBox="0 0 22 22">
  <defs id="defs3051">
    <style type="text/css" id="current-color-scheme">
      .ColorScheme-Text {
        color:#f2f2f2;
      }
      .ColorScheme-Highlight {
        color:#3daee9;
      }
      </style>
  </defs>
 <path 
     style="fill:currentColor;fill-opacity:1;stroke:none" 
     d="M 4 3 L 4 9 L 4 10 L 4 15 L 4 16 L 4 17 L 3 17 L 3 18 L 4 18 L 4 19 L 5 19 L 5 18 L 18.292969 18 L 19 18 L 19 17.292969 L 19 17 L 18.707031 17 L 17.292969 17 L 5 17 L 5 15.431641 L 5 15.423828 L 5 15 L 5 12.423828 L 5 11.423828 L 5 11 L 5 10 L 5 9 L 5 6 L 5 5.9921875 L 5 5 L 5 3 L 4 3 z M 17 3 L 17 4 L 18 4 L 18 3 L 17 3 z M 18 4 L 18 5 L 19 5 L 19 4 L 18 4 z M 18 5 L 17 5 L 17 6 L 18 6 L 18 5 z M 17 5 L 17 4 L 16 4 L 16 5 L 17 5 z M 6 4 L 6 5 L 7 5 L 7 4 L 6 4 z M 8 4 L 8 5 L 9 5 L 9 4 L 8 4 z M 6 6 L 6 7 L 7 7 L 7 6 L 6 6 z M 8 6 L 8 7 L 9 7 L 9 6 L 8 6 z M 11 7 L 11 8 L 12 8 L 12 7 L 11 7 z M 13 7 L 13 8 L 14 8 L 14 7 L 13 7 z M 11 9 L 11 10 L 12 10 L 12 9 L 11 9 z M 13 9 L 13 10 L 14 10 L 14 9 L 13 9 z M 7 13 L 7 14 L 8 14 L 8 13 L 7 13 z M 8 14 L 8 15 L 9 15 L 9 14 L 8 14 z M 8 15 L 7 15 L 7 16 L 8 16 L 8 15 z M 7 15 L 7 14 L 6 14 L 6 15 L 7 15 z "
     class="ColorScheme-Text"
     />
</svg>
